X:1
T:Paddy Works on the Railroad
M:6/8
R:jig
K:Aminor
|:A2B A2G | A2B c2A |G2A G2F | E2F G2B |A2B A2G | A2B c2B | cBA BAG |1 A3 A3:|2 A3 Acd|
|:eAA Acd| eAA Adc | BGG GBc |dGG Gcd |eAA Agf | eAA Acd | edc BAG | A3 A3:|
